images/logo.svg

<svg width="168" height="38" viewBox="0 0 168 38" fill="none" xmlns="http://www.w3.org/2000/svg">
<g clip-path="url(#clip0)">
<path d="M66.6074 14V0.729187H70.3535C71.508 0.729187 72.5289 0.984391 73.416 1.49482C74.3032 2.00522 74.9868 2.73136 75.4668 3.6732C75.9529 4.61503 76.199 5.69664 76.2051 6.91799V7.76565C76.2051 9.01742 75.962 10.1142 75.4759 11.056C74.9959 11.9979 74.3062 12.721 73.4069 13.2253C72.5137 13.7296 71.4716 13.9879 70.2806 14H66.6074ZM68.3574 2.16929V12.5691H70.1986C71.5475 12.5691 72.5957 12.1498 73.3431 11.3112C74.0966 10.4726 74.4733 9.27868 74.4733 7.72919V6.95445C74.4733 5.44751 74.1178 4.2778 73.4069 3.44533C72.702 2.60679 71.6994 2.18145 70.3991 2.16929H68.3574ZM83.7246 8.63157H80.6074V14H78.8483V0.729187H83.2416C84.7363 0.729187 85.8848 1.06946 86.6869 1.75002C87.495 2.43058 87.8991 3.42103 87.8991 4.72137C87.8991 5.54776 87.6743 6.26781 87.2246 6.88153C86.7811 7.49525 86.1613 7.95404 85.3652 8.25784L88.4824 13.8907V14H86.6048L83.7246 8.63157ZM80.6074 7.20054H83.2962C84.1652 7.20054 84.8548 6.97572 85.3652 6.52606C85.8817 6.07641 86.14 5.47484 86.14 4.72137C86.14 3.90106 85.8939 3.27215 85.4017 2.83465C84.9156 2.39715 84.2108 2.17537 83.2871 2.16929H80.6074V7.20054ZM97.8613 7.86592H92.11V12.5691H98.791V14H90.36V0.729187H98.6999V2.16929H92.11V6.43492H97.8613V7.86592ZM108.298 10.5365H102.738L101.489 14H99.6843L104.752 0.729187H106.283L111.36 14H109.564L108.298 10.5365ZM103.266 9.09636H107.778L105.518 2.88934L103.266 9.09636ZM115.407 0.729187L119.745 11.5573L124.084 0.729187H126.354V14H124.604V8.83208L124.768 3.25392L120.411 14H119.071L114.723 3.28127L114.896 8.83208V14H113.146V0.729187H115.407ZM132.816 7.82944L131.193 9.51567V14H129.443V0.729187H131.193V7.29169L137.09 0.729187H139.205L133.982 6.58987L139.615 14H137.519L132.816 7.82944ZM148.475 10.5365H142.915L141.666 14H139.861L144.929 0.729187H146.46L151.537 14H149.742L148.475 10.5365ZM143.443 9.09636H147.955L145.695 2.88934L143.443 9.09636ZM155.584 0.729187L159.923 11.5573L164.261 0.729187H166.531V14H164.781V8.83208L164.945 3.25392L160.588 14H159.248L154.901 3.28127L155.073 8.83208V14H153.323V0.729187H155.584Z" fill="#275553"/>
<path d="M77.0404 24.178H72.7748V36.0087H71.0339V24.178H66.7773V22.7379H77.0404V24.178ZM88.9623 29.8016C88.9623 31.102 88.7435 32.2383 88.306 33.2105C87.8685 34.1766 87.2488 34.915 86.4466 35.4254C85.6446 35.9357 84.7088 36.191 83.6393 36.191C82.5942 36.191 81.6676 35.9357 80.8594 35.4254C80.0513 34.9088 79.4224 34.1766 78.9727 33.2288C78.5291 32.2747 78.3013 31.1718 78.2891 29.9202V28.9631C78.2891 27.6871 78.5109 26.5599 78.9545 25.5816C79.398 24.6033 80.0239 23.8559 80.8321 23.3394C81.6463 22.8169 82.576 22.5555 83.6211 22.5555C84.6845 22.5555 85.6203 22.8138 86.4284 23.3303C87.2426 23.8407 87.8685 24.5851 88.306 25.5634C88.7435 26.5356 88.9623 27.6688 88.9623 28.9631V29.8016ZM87.2214 28.9449C87.2214 27.3711 86.9054 26.165 86.2735 25.3264C85.6415 24.4818 84.7574 24.0595 83.6211 24.0595C82.5152 24.0595 81.6432 24.4818 81.0052 25.3264C80.3733 26.165 80.0482 27.3316 80.03 28.8264V29.8016C80.03 31.3269 80.349 32.5269 80.987 33.4019C81.6311 34.2708 82.5152 34.7053 83.6393 34.7053C84.7696 34.7053 85.6446 34.2952 86.2643 33.4748C86.8841 32.6485 87.2032 31.4666 87.2214 29.9293V28.9449ZM100.93 22.7379V31.7613C100.924 33.013 100.529 34.0369 99.7449 34.8329C98.9671 35.6289 97.9098 36.0755 96.5729 36.1727L96.1081 36.191C94.6559 36.191 93.4983 35.7991 92.6354 35.0152C91.7726 34.2313 91.3351 33.1528 91.3229 31.7795V22.7379H93.0547V31.7248C93.0547 32.6849 93.319 33.4323 93.8477 33.967C94.3763 34.4957 95.1298 34.76 96.1081 34.76C97.0985 34.76 97.8551 34.4957 98.3776 33.967C98.9062 33.4384 99.1706 32.694 99.1706 31.7339V22.7379H100.93ZM108.559 30.6402H105.441V36.0087H103.682V22.7379H108.076C109.57 22.7379 110.719 23.0781 111.521 23.7587C112.329 24.4392 112.733 25.4297 112.733 26.73C112.733 27.5564 112.508 28.2765 112.059 28.8902C111.615 29.5039 110.995 29.9627 110.199 30.2665L113.316 35.8993V36.0087H111.439L108.559 30.6402ZM105.441 29.2092H108.13C108.999 29.2092 109.689 28.9844 110.199 28.5347C110.716 28.0851 110.974 27.4835 110.974 26.73C110.974 25.9097 110.728 25.2808 110.236 24.8433C109.75 24.4058 109.045 24.1841 108.121 24.178H105.441V29.2092Z" fill="#275553"/>
</g>
<g clip-path="url(#clip1)">
<path fill-rule="evenodd" clip-rule="evenodd" d="M0.607422 31.8498V2.02042C0.607422 0.904576 1.51337 0 2.63091 0H17.5682C19.0724 0 20.0508 1.5806 19.3781 2.92399L4.44077 32.7534C3.48586 34.6603 0.607422 33.9818 0.607422 31.8498ZM50.3852 31.8498V2.02042C50.3852 0.904576 49.4791 0 48.3617 0H33.4244C31.9202 0 30.9418 1.5806 31.6145 2.92399L46.5519 32.7534C47.5066 34.6603 50.3852 33.9818 50.3852 31.8498ZM26.5081 35.1554V5.32596C26.5081 3.19398 29.3865 2.51549 30.3414 4.42243L45.2787 34.2518C45.9513 35.5952 44.9732 37.1758 43.4689 37.1758H28.5315C27.414 37.1758 26.5081 36.2712 26.5081 35.1554ZM24.4846 5.32596V35.1554C24.4846 36.2712 23.5786 37.1758 22.4611 37.1758H7.52378C6.01956 37.1758 5.04121 35.5952 5.71389 34.2518L20.6512 4.42243C21.6061 2.51549 24.4846 3.19398 24.4846 5.32596Z" fill="#275553"/>
</g>
<defs>
<clipPath id="clip0">
<rect width="101.111" height="36.5556" fill="white" transform="translate(66)"/>
</clipPath>
<clipPath id="clip1">
<rect width="49.7778" height="37.1758" fill="white"/>
</clipPath>
</defs>
</svg>

<svg width="168" height="38" fill="none" xmlns="http://www.w3.org/2000/svg"><g clip-path="url(#clip0)" fill="#275553"><path d="M66.607 14V.73h3.746c1.155 0 2.176.254 3.063.765a5.149 5.149 0 012.05 2.178c.487.942.733 2.024.74 3.245v.848c0 1.251-.244 2.348-.73 3.29a5.061 5.061 0 01-2.07 2.17c-.892.504-1.934.762-3.125.774h-3.674zm1.75-11.83v10.4H70.2c1.349 0 2.397-.42 3.144-1.259.754-.838 1.13-2.032 1.13-3.582v-.775c0-1.506-.355-2.676-1.066-3.509-.705-.838-1.708-1.264-3.008-1.276h-2.042zm15.368 6.462h-3.118V14h-1.759V.73h4.394c1.494 0 2.643.34 3.445 1.02.808.68 1.212 1.671 1.212 2.971 0 .827-.225 1.547-.674 2.16-.444.614-1.064 1.073-1.86 1.377l3.117 5.633V14h-1.877l-2.88-5.368zM80.607 7.2h2.69c.868 0 1.558-.225 2.068-.675.517-.45.775-1.051.775-1.805 0-.82-.246-1.449-.738-1.886-.486-.438-1.191-.66-2.115-.666h-2.68V7.2zm17.254.665H92.11v4.703h6.681V14H90.36V.73h8.34v1.44h-6.59v4.265h5.751v1.43zm10.437 2.67h-5.56L101.489 14h-1.805L104.752.73h1.531L111.36 14h-1.796l-1.266-3.463zm-5.032-1.44h4.512l-2.26-6.207-2.252 6.207zM115.407.73l4.338 10.828L124.084.73h2.27V14h-1.75V8.832l.164-5.578L120.411 14h-1.34l-4.348-10.719.173 5.551V14h-1.75V.73h2.261zm17.409 7.1l-1.623 1.687V14h-1.75V.73h1.75v6.562L137.09.729h2.115l-5.223 5.86L139.615 14h-2.096l-4.703-6.17zm15.659 2.708h-5.56L141.666 14h-1.805L144.929.73h1.531L151.537 14h-1.795l-1.267-3.463zm-5.032-1.44h4.512l-2.26-6.208-2.252 6.207zm12.141-8.37l4.339 10.828L164.261.73h2.27V14h-1.75V8.832l.164-5.578L160.588 14h-1.34l-4.347-10.719.172 5.551V14h-1.75V.73h2.261zM77.04 24.178h-4.265v11.83h-1.741v-11.83h-4.257v-1.44H77.04v1.44zm11.922 5.624c0 1.3-.219 2.436-.656 3.409-.438.966-1.057 1.704-1.86 2.214-.801.51-1.737.766-2.807.766-1.045 0-1.971-.255-2.78-.766-.808-.516-1.437-1.248-1.886-2.196-.444-.954-.672-2.057-.684-3.309v-.957c0-1.276.222-2.403.665-3.381.444-.979 1.07-1.726 1.878-2.243.814-.522 1.744-.784 2.79-.784 1.063 0 1.998.259 2.806.775.815.51 1.44 1.255 1.878 2.233.438.973.656 2.106.656 3.4v.839zm-1.74-.857c0-1.574-.317-2.78-.948-3.619-.633-.844-1.517-1.267-2.653-1.267-1.106 0-1.978.423-2.616 1.267-.632.839-.957 2.006-.975 3.5v.976c0 1.525.319 2.725.957 3.6.644.869 1.528 1.303 2.652 1.303 1.13 0 2.006-.41 2.625-1.23.62-.827.94-2.008.957-3.546v-.984zm13.708-6.207v9.023c-.006 1.252-.401 2.276-1.185 3.072-.778.796-1.835 1.242-3.172 1.34l-.465.018c-1.452 0-2.61-.392-3.473-1.176-.862-.784-1.3-1.862-1.312-3.236v-9.041h1.732v8.987c0 .96.264 1.707.793 2.242.528.529 1.282.793 2.26.793.99 0 1.747-.264 2.27-.793.528-.529.793-1.273.793-2.233v-8.996h1.759zm7.629 7.902h-3.118v5.369h-1.759V22.738h4.394c1.494 0 2.643.34 3.445 1.02.808.681 1.212 1.672 1.212 2.972 0 .826-.225 1.546-.674 2.16-.444.614-1.064 1.073-1.86 1.377l3.117 5.632v.11h-1.877l-2.88-5.369zm-3.118-1.43h2.689c.869 0 1.559-.226 2.069-.675.517-.45.775-1.052.775-1.805 0-.82-.246-1.45-.738-1.887-.486-.437-1.191-.659-2.115-.665h-2.68v5.031z"/></g><g clip-path="url(#clip1)"><path fill-rule="evenodd" clip-rule="evenodd" d="M.607 31.85V2.02C.607.905 1.513 0 2.631 0h14.937c1.504 0 2.483 1.58 1.81 2.924L4.441 32.754C3.486 34.66.607 33.981.607 31.85zm49.778 0V2.02C50.385.905 49.48 0 48.362 0H33.424c-1.504 0-2.482 1.58-1.81 2.924l14.938 29.83c.955 1.906 3.833 1.228 3.833-.904zm-23.877 3.305V5.326c0-2.132 2.879-2.81 3.833-.904l14.938 29.83c.672 1.343-.306 2.924-1.81 2.924H28.53a2.022 2.022 0 01-2.023-2.02zM24.485 5.326v29.83c0 1.115-.906 2.02-2.024 2.02H7.524c-1.504 0-2.483-1.58-1.81-2.924L20.65 4.422c.955-1.907 3.834-1.228 3.834.904z" fill="#275553"/></g><defs><clipPath id="clip0"><path fill="#fff" transform="translate(66)" d="M0 0h101.111v36.556H0z"/></clipPath><clipPath id="clip1"><path fill="#fff" d="M0 0h49.778v37.176H0z"/></clipPath></defs></svg>
